usr/share/icons/biglinux-icons-material-dark/16/devices/network-modem.svg

<svg xmlns="http://www.w3.org/2000/svg" viewBox="0 0 16 16">
  <defs id="defs3051">
    <style type="text/css" id="current-color-scheme">
      .ColorScheme-Text {
        color:#dedede;
      }
      </style>
  </defs>
 <path style="fill:currentColor" class="ColorScheme-Text" d="M 8,0.5 C 3.8773135,0.5 0.5,4.0323269 0.5,8.3442387 0.5,11.527838 2.3258175,14.273116 4.9065126,15.5 L 5.2706582,14.659546 C 2.9987751,13.579474 1.3823529,11.158725 1.3823529,8.3442387 1.3823529,4.5356631 4.358561,1.4228516 8,1.4228516 c 3.641439,0 6.617647,3.1128115 6.617647,6.9213871 0,2.7261143 -1.533644,5.1055493 -3.723739,6.2292483 l 0.388654,0.827636 C 13.76859,14.125587 15.5,11.431654 15.5,8.3442387 15.5,4.0323269 12.122687,0.5 8,0.5 Z m 0,2.3071289 c -2.927216,0 -5.2941176,2.4755387 -5.2941176,5.5371098 0,2.2608173 1.2995715,4.1778093 3.1285014,5.0335683 L 6.195028,12.537354 C 4.6712672,11.824382 3.5882353,10.235942 3.5882353,8.3442387 3.5882353,5.7768352 5.5452654,3.7299805 8,3.7299805 c 2.454734,0 4.411765,2.0468547 4.411765,4.6142582 0,1.8051483 -1.004849,3.3983123 -2.4877462,4.1528313 l 0.3869062,0.829468 C 12.092491,12.42005 13.294118,10.507055 13.294118,8.3442387 13.294118,5.2826676 10.927216,2.8071289 8,2.8071289 Z m 0,2.3071289 c -1.6963974,0 -3.0882353,1.455721 -3.0882353,3.229981 0,1.32573 0.7224514,2.4724442 1.8119748,2.9608152 L 7.0703781,10.457276 C 6.3070989,10.115142 5.7941176,9.3254638 5.7941176,8.3442387 5.7941176,7.073315 6.7848504,6.0371094 8,6.0371094 c 1.2151498,0 2.205883,1.0362056 2.205883,2.3071294 0,0.9279084 -0.5115005,1.6883872 -1.2570032,2.0782462 l 0.3956585,0.825806 C 10.363609,10.715368 11.088235,9.6310072 11.088235,8.3442387 11.088235,6.5699788 9.6963975,5.1142578 8,5.1142578 Z M 8,7.4213862 A 0.88228699,0.92278258 0 0 0 7.1176471,8.3442387 0.88228699,0.92278258 0 0 0 8,9.2670894 0.88228699,0.92278258 0 0 0 8.8823529,8.3442387 0.88228699,0.92278258 0 0 0 8,7.4213862 Z"/>
</svg>

<svg xmlns="http://www.w3.org/2000/svg" viewBox="0 0 16 16">
<defs id="defs3051">
<style id="current-color-scheme" type="text/css">
.ColorScheme-Text{color:#dedede}
</style>
</defs>
<path d="M8 .5C3.877.5.5 4.032.5 8.344c0 3.184 1.826 5.93 4.407 7.156l.364-.84c-2.272-1.08-3.889-3.501-3.889-6.316C1.382 4.536 4.36 1.423 8 1.423s6.618 3.113 6.618 6.921c0 2.726-1.534 5.106-3.724 6.23l.389.827c2.486-1.275 4.217-3.97 4.217-7.057C15.5 4.032 12.123.5 8 .5m0 2.307c-2.927 0-5.294 2.476-5.294 5.537 0 2.261 1.3 4.178 3.128 5.034l.361-.84c-1.524-.714-2.607-2.302-2.607-4.194C3.588 5.777 5.545 3.73 8 3.73s4.412 2.047 4.412 4.614c0 1.805-1.005 3.399-2.488 4.153l.387.83c1.781-.907 2.983-2.82 2.983-4.983 0-3.061-2.367-5.537-5.294-5.537m0 2.307c-1.696 0-3.088 1.456-3.088 3.23 0 1.326.722 2.473 1.812 2.961l.346-.848c-.763-.342-1.276-1.132-1.276-2.113 0-1.27.99-2.307 2.206-2.307s2.206 1.036 2.206 2.307c0 .928-.512 1.689-1.257 2.078l.396.826a3.27 3.27 0 0 0 1.743-2.904c0-1.774-1.392-3.23-3.088-3.23m0 2.307a.882.923 0 0 0-.882.923.882.923 0 0 0 .882.923.882.923 0 0 0 .882-.923A.882.923 0 0 0 8 7.421" class="ColorScheme-Text" style="fill:currentColor"/>
</svg>
